X:740
T: Rosie Rogers' Fling
C: BB
M: 4/4
L: 1/8
Q: 1/8=330
R: hornpipe
K: A
"A"eafe cBAB|"A"cecA "F#m"F2 F2|"A"EFAB cBAc|"F#m"efec "E"B2 B2 |
"A"eafe cBAB|"A"cecA "D"FGAB|"A"Aaga "F#m"fecA|"E"EFGB "A"A2 A2 :|
"A"aece "F#m"fece|"A"Acea "D"f2 f2|"A"aece "Bm"fbaf|"A"eaec "E"B2 B2 |
"A"aece "F#m"fece|"A"Acea "D"fefg|"Bm7"afbf "D"afed|"E"cedB "A"A2 A2 :|
%%%%%%%%%%%%%%%%%%%%%%%%%%%%%%%%%%%%%%%%%%%
